app/dist/common/images/model-n.svg

<svg height="18" viewBox="0 0 18 18" width="18" xmlns="http://www.w3.org/2000/svg"><path d="m0 0h18v18h-18z" fill="#f0f3fa"/><path d="m3 6v6h.67v-5.48l2 5.48h.73l1.93-5.48v5.48h.67v-6h-1.19l-1.77 5.38-1.84-5.38z" fill="#0069a9"/><path d="m10 6v6h1v-4.75l2.15 4.75h1.85v-6h-1v4.46l-2.13-4.46z" fill="#00a5dc"/></svg>

<!-- by TradingView --><svg width="18" height="18" viewBox="0 0 18 18" xmlns="http://www.w3.org/2000/svg"><path fill="#F0F3FA" d="M0 0h18v18H0z"/><path d="M3 6v6h.67V6.52l2 5.48h.73l1.93-5.48V12H9V6H7.81l-1.77 5.38L4.2 6H3Z" fill="#0069A9"/><path d="M10 6v6h1V7.25L13.15 12H15V6h-1v4.46L11.87 6H10Z" fill="#00A5DC"/></svg>
